X: 41026
T: Trip To Kilkenny, The
R: jig
M: 6/8
K: Amajor
cB|ABA Aca|f2f fef|a2f ecA|fec Bcd|
cBA cee|f2f fef|a2f ecA|BcB A:|
cd|efe Ace|f>ff dfa|g>gg egb|agf ecd|
efe Ace|f>ff dfa|g>gg egb|aec Acd|
efe Ace|f2f dfa|g2g egb|agf ecB|
ABA Aca|f>ff fef|age age|age dcB||A3-A3||

